!!!!SEGMENT: pl-kk--kk-i-2--042-005_lilius-franciszek--missa-pro-tempore-pashali-agnus-dei.krn
!!!cenid: 16xx:1666
!!!COM: Lilius, Franciszek
!!!COM-rismID: pe30020509
!!!CDT: ~1600-1657
!!!CNT: Polish
!!!OPR: Missa pro tempore Pashali
!!!OTL: Agnus Dei
!!!OMV: 005
!!!PDT:
!!!AGN: Sacred; Mass
!!!SMS-siglum: PL-Kk
!!!SMS-shelfmark: Kk.I.2
!!!SMS-shelfwork: 042-005 M
!!!NIFC-rismSourceID: 300258060
!!!NIFC-islandoraID: pl-kk:750
!!!URL-pdf-islandora: https://repozytorium.nifc.pl/islandora/object/pl-kk%3A750/datastream/PDF/view
!!!URL-scan: https://polish.musicsources.pl/pl/lokalizacje/galeria/rekopisy/5828 @EN{Scan on Polish Music Herritage in Open Access Website} @PL{Skany w portalu Dziedzictwo Muzyki Polskiej w otwartym dostępie}
!!!ONB-nifc: Części mszy: Kyrie, Gloria, Credo, Sanctus, Agnus Dei; skany: C: 0068; A: 0172; T: 0272; B: 0371-0372;
!!!AIN: 1 alto 1 bass 1 soprn 1 tenor
!!!key: G:mix
**kern	**text	**text	**kern	**text	**text	**kern	**text	**text	**kern	**text	**text
*part4	*part4	*part4	*part3	*part3	*part3	*part2	*part2	*part2	*part1	*part1	*part1
*staff4	*staff4	*staff4	*staff3	*staff3	*staff3	*staff2	*staff2	*staff2	*staff1	*staff1	*staff1
*I"BASVS	*	*	*I"TENOR	*	*	*I"ALTVS	*	*	*I"DISCANTVS	*	*
*I'B	*	*	*I'T	*	*	*I'A	*	*	*I'S	*	*
*ICvox	*	*	*ICvox	*	*	*ICvox	*	*	*ICvox	*	*
*Ibass	*	*	*Itenor	*	*	*Ialto	*	*	*Isoprn	*	*
*clefF4	*	*	*clefC4	*	*	*clefC4	*	*	*clefC3	*	*
*G:mix	*	*	*G:mix	*	*	*G:mix	*	*	*G:mix	*	*
*k[]	*	*	*k[]	*	*	*k[]	*	*	*k[]	*	*
*M2/1	*	*	*M2/1	*	*	*M2/1	*	*	*M2/1	*	*
*met(c|)	*	*	*met(c|)	*	*	*met(c|)	*	*	*met(c|)	*	*
=1	=1	=1	=1	=1	=1	=1	=1	=1	=1	=1	=1
*lig	*	*	*	*	*	*lig	*	*	*lig	*	*
!LO:N:vis=0	!	!	!	!	!	!LO:N:vis=0	!	!	!LO:N:vis=0	!	!
1E	A-	.	1E	A-	.	1G	A-	.	1B	A-	.
*	*	*	*lig	*	*	*	*	*	*	*	*
!LO:N:vis=0	!	!	!LO:N:vis=0	!	!	!LO:N:vis=0	!	!	!LO:N:vis=0	!	!
1D	.	.	1F	.	.	1A	.	.	1d	.	.
*Xlig	*	*	*	*	*	*Xlig	*	*	*Xlig	*	*
=2	=2	=2	=2	=2	=2	=2	=2	=2	=2	=2	=2
!	!	!	!LO:N:vis=0	!	!	!	!	!	!LO:TX:t=P:problem=kreska pseudotaktowa	!	!
1C	.	.	1E	.	.	1.c	.	.	1e	-gnus	.
*	*	*	*Xlig	*	*	*	*	*	*	*	*
!LO:TX:t=P:problem=kreska pseudotaktowa	!	!	!	!	!	!	!	!	!	!	!
1GG	-gnus	.	1D	.	.	.	.	.	1.g	De-	.
!	!	!	!	!	!	!LO:TX:t=P:problem=kreska pseudotaktowa	!	!	!	!	!
.	.	.	.	.	.	2B\	.	.	.	.	.
=3	=3	=3	=3	=3	=3	=3	=3	=3	=3	=3	=3
1C	De-	.	1E	.	.	2c\	-gnus	.	.	.	.
.	.	.	.	.	.	4G/	De-	.	2e\	.	.
!	!	!	!	!	!	!LO:TX:t=P:problem=kreska pseudotaktowa	!	!	!	!	!
.	.	.	.	.	.	4A/	.	.	.	.	.
*	*	*	*lig	*	*	*	*	*	*	*	*
!	!	!	!LO:N:vis=0	!	!	!	!	!	!	!	!
1BB	.	.	1G	.	.	4B\	.	.	1d	.	.
.	.	.	.	.	.	4c\	.	.	.	.	.
.	.	.	.	.	.	2d\	.	.	.	.	.
=4	=4	=4	=4	=4	=4	=4	=4	=4	=4	=4	=4
!	!	!	!LO:N:vis=0	!	!	!	!	!	!	!	!
2.C/	.	.	1E	.	.	2c\	.	.	4e\	.	.
.	.	.	.	.	.	.	.	.	4f\	.	.
.	.	.	.	.	.	2G/	.	.	1g	.	.
4BB/	.	.	.	.	.	.	.	.	.	.	.
!	!	!	!	!	!	!LO:TX:t=P:problem=kreska pseudotaktowa	!	!	!	!	!
*	*	*	*Xlig	*	*	*	*	*	*	*	*
!	!	!	!LO:TX:t=P:problem=kreska pseudotaktowa	!	!	!	!	!	!	!	!
1AA	.	.	1C	-gnus	.	1A	.	.	.	.	.
!	!	!	!	!	!	!	!	!	!LO:TX:t=P:problem=kreska pseudotaktowa	!	!
.	.	.	.	.	.	.	.	.	2f#X\	.	.
=5	=5	=5	=5	=5	=5	=5	=5	=5	=5	=5	=5
!LO:TX:t=P:problem=kreska pseudotaktowa	!	!	!	!	!	!	!	!	!	!	!
*	*	*	*lig	*	*	*	*	*	*	*	*
!	!	!	!LO:N:vis=0	!	!	!	!	!	!LO:TX:t=P:problem=kreska pseudotaktowa	!	!
0GG	.	.	1D	De-	.	2B\	.	.	0g	-i	.
.	.	.	.	.	.	4d\	.	.	.	.	.
.	.	.	.	.	.	4c\	.	.	.	.	.
!	!	!	!LO:N:vis=0	!	!	!	!	!	!	!	!
.	.	.	1E	.	.	4B\	.	.	.	.	.
.	.	.	.	.	.	4A/	.	.	.	.	.
.	.	.	.	.	.	2B\	.	.	.	.	.
!	!	!	!	!	!	!LO:TX:t=P:problem=kreska pseudotaktowa	!	!	!	!	!
*	*	*	*Xlig	*	*	*	*	*	*	*	*
=6	=6	=6	=6	=6	=6	=6	=6	=6	=6	=6	=6
*lig	*	*	*lig	*	*	*	*	*	*	*	*
*	*	*	*	*	*	*	*	*	*	*ij	*
!LO:N:vis=0	!	!	!LO:N:vis=0	!	!	!	!	!	!	!	!
1FF	.	.	1F	.	.	1A	.	.	2.c/	A-	.
.	.	.	.	.	.	.	.	.	4d\	.	.
!LO:N:vis=0	!	!	!LO:N:vis=0	!	!	!	!	!	!	!	!
1C	.	.	1E	.	.	0G	.	.	2e\	-gnus	.
.	.	.	.	.	.	.	.	.	1c	De-	.
*Xlig	*	*	*Xlig	*	*	*	*	*	*	*	*
=7	=7	=7	=7	=7	=7	=7	=7	=7	=7	=7	=7
1GG	.	.	1D	.	.	.	.	.	.	.	.
!	!	!	!	!	!	!	!	!	!LO:TX:t=P:problem=kreska pseudotaktowa	!	!
.	.	.	.	.	.	.	.	.	2B/	.	.
!LO:TX:t=P:problem=kreska pseudotaktowa	!	!	!LO:TX:t=P:problem=kreska pseudotaktowa	!	!	!LO:TX:t=P:problem=kreska pseudotaktowa	!	!	!	!	!
1C	-i	.	1E	-i	.	1G	-i	.	2c,/	-i	.
*	*	*	*	*	*	*	*	*	*	*Xij	*
.	.	.	.	.	.	.	.	.	2c/	qui	.
=8	=8	=8	=8	=8	=8	=8	=8	=8	=8	=8	=8
0r	.	.	1G	qui	.	1r	.	.	2d\	tol-	.
!	!	!	!	!	!	!	!	!	!LO:TX:t=P:problem=kreska pseudotaktowa	!	!
.	.	.	.	.	.	.	.	.	2e\	-lis	.
.	.	.	1A	tol-	.	2r	.	.	2f\	pec-	.
!	!	!	!	!	!	!LO:TX:t=P:problem=kreska pseudotaktowa	!	!	!	!	!
.	.	.	.	.	.	2c\	qui	.	2e\	ca-	.
=9	=9	=9	=9	=9	=9	=9	=9	=9	=9	=9	=9
!LO:TX:t=P:problem=kreska pseudotaktowa	!	!	!LO:TX:t=P:problem=kreska pseudotaktowa	!	!	!	!	!	!	!	!
1r	.	.	1B	.	.	1d	tol-	.	2.g\	.	.
!	!	!	!	!	!	!	!	!	!LO:TX:t=P:problem=kreska pseudotaktowa	!	!
.	.	.	.	.	.	.	.	.	4f\	-ta	.
*	*	*	*lig	*	*	*lig	*	*	*	*	*
!	!	!	!LO:N:vis=0	!	!	!LO:N:vis=0	!	!	!	!	!
2r	.	.	1c	.	.	1e	-lis	.	2e\	mun-	.
!	!	!	!	!	!	!	!	!	!LO:TX:t=P:problem=kreska pseudotaktowa	!	!
2C/	qui	.	.	.	.	.	.	.	2c/	-di	.
=10	=10	=10	=10	=10	=10	=10	=10	=10	=10	=10	=10
!	!	!	!	!	!	!LO:TX:t=P:problem=kreska pseudotaktowa	!	!	!	!	!
!	!	!	!LO:N:vis=0	!	!	!LO:N:vis=0	!	!	!	!	!
2D/	tol-	.	1B	.	.	1d	.	.	2r	.	.
2E\	-lis	.	.	.	.	.	.	.	2G/	qui	.
!LO:TX:t=P:problem=kreska pseudotaktowa	!	!	!	!	!	!	!	!	!LO:TX:t=P:problem=kreska pseudotaktowa	!	!
*	*	*	*Xlig	*	*	*Xlig	*	*	*	*	*
*	*	*	*lig	*	*	*	*	*	*	*	*
!	!	!	!LO:N:vis=0	!	!	!	!	!	!	!	!
2F\	pec-	.	1A	.	.	2r	.	.	1A	tol-	.
!	!	!	!	!	!	!LO:TX:t=P:problem=kreska pseudotaktowa	!	!	!	!	!
1F	-ca-	.	.	.	.	2c\	qui	.	.	.	.
=11	=11	=11	=11	=11	=11	=11	=11	=11	=11	=11	=11
!	!	!	!LO:N:vis=0	!	!	!	!	!	!	!	!
.	.	.	1G	.	.	2d\	tol-	.	2B/	.	.
2E\	-ta	.	.	.	.	2e\	-lis	.	2c/	-lis	.
!LO:TX:t=P:problem=kreska pseudotaktowa	!	!	!	!	!	!LO:TX:t=P:problem=kreska pseudotaktowa	!	!	!LO:TX:t=P:problem=kreska pseudotaktowa	!	!
*	*	*	*Xlig	*	*	*	*	*	*	*	*
*	*	*	*	*	*	*custos:d	*	*	*custos:a	*	*
!	!	!	!	!	!	!LO:TX:t=P:problem=kreska pseudotaktowa	!	!	!	!	!
2D\	mu-	.	1A	.	.	2f\	pec-	.	2d\	pec-	.
!	!	!	!	!	!	!	!	!	!LO:LB:g=original	!	!
!	!	!	!	!	!	!LO:LB:g=original	!	!	!	!	!
2F\	.	.	.	.	.	4d\	ca-	.	2.a\	-ca-	.
!	!	!	!	!	!	!LO:TX:t=P:problem=kreska pseudotaktowa	!	!	!	!	!
.	.	.	.	.	.	4d\	-ta	.	.	.	.
=12	=12	=12	=12	=12	=12	=12	=12	=12	=12	=12	=12
*custos:AA	*	*	*	*	*	*	*	*	*	*	*
!	!	!	!LO:TX:t=P:problem=kreska pseudotaktowa	!	!	!	!	!	!	!	!
1E	.	.	1B	-lis	.	1e	mun-	.	.	.	.
.	.	.	.	.	.	.	.	.	4a\	-ta	.
!	!	!	!	!	!	!	!	!	!LO:TX:t=P:problem=kreska pseudotaktowa	!	!
.	.	.	.	.	.	.	.	.	2g#X\	mun-	.
!LO:TX:t=P:problem=kreska pseudotaktowa	!	!	!	!	!	!LO:TX:t=P:problem=kreska pseudotaktowa	!	!	!	!	!
!LO:LB:g=original	!	!	!	!	!	!	!	!	!	!	!
1AA	-(n)di	.	1e	pec-	.	1c	-di	.	2a\	-di	.
.	.	.	.	.	.	.	.	.	2a\	pec-	.
=13	=13	=13	=13	=13	=13	=13	=13	=13	=13	=13	=13
!LO:TX:t=P:problem=kreska pseudotaktowa	!	!	!	!	!	!	!	!	!	!	!
0r	.	.	1d	-ca-	.	0r	.	.	1f	-ca-	.
!	!	!	!LO:TX:t=P:problem=kreska pseudotaktowa	!	!	!	!	!	!LO:TX:t=P:problem=kreska pseudotaktowa	!	!
.	.	.	1B	-ta	.	.	.	.	1d	-ta	.
=14	=14	=14	=14	=14	=14	=14	=14	=14	=14	=14	=14
*	*	*	*lig	*	*	*	*	*	*	*	*
!	!	!	!LO:N:vis=0	!	!	!	!	!	!	!	!
2r	.	.	1c	mun-	.	1r	.	.	2.e\	mun-	.
!LO:TX:t=P:problem=kreska pseudotaktowa	!	!	!	!	!	!	!	!	!	!	!
2A\	pec-	.	.	.	.	.	.	.	.	.	.
.	.	.	.	.	.	.	.	.	4f\	.	.
!	!	!	!LO:N:vis=0	!	!	!	!	!	!	!	!
2G\	-ca-	.	1B	.	.	2r	.	.	1g	.	.
2E\	-ta	.	.	.	.	2e\	[[qui	.	.	.	.
!	!	!	!	!	!	!LO:TX:t=P:problem=kreska pseudotaktowa	!	!	!	!	!
*	*	*	*Xlig	*	*	*	*	*	*	*	*
=15	=15	=15	=15	=15	=15	=15	=15	=15	=15	=15	=15
*	*	*	*lig	*	*	*	*	*	*	*	*
!	!	!	!LO:N:vis=0	!	!	!	!	!	!LO:TX:t=P:problem=kreska pseudotaktowa	!	!
1F	mun-	.	1A	.	.	2c\	tol-	.	1f	-di	.
.	.	.	.	.	.	1A	-lis]]	.	.	.	.
*	*	*	*custos:A	*	*	*	*	*	*	*	*
!LO:TX:t=P:problem=kreska pseudotaktowa	!	!	!	!	!	!	!	!	!	!	!
!	!	!	!LO:N:vis=0	!	!	!	!	!	!	!	!
1E	.	.	1B	.	.	.	.	.	2r	.	.
.	.	.	.	.	.	2G#X/	pec-	.	2e\	pec-	.
!	!	!	!	!	!	!LO:TX:t=P:problem=kreska pseudotaktowa	!	!	!	!	!
*	*	*	*Xlig	*	*	*	*	*	*	*	*
!	!	!	!	!	!	!LO:LB:g=original	!	!	!	!	!
=16	=16	=16	=16	=16	=16	=16	=16	=16	=16	=16	=16
2AA/	.	.	1A	.	.	4A/	-ca-	.	2c/	-ca-	.
.	.	.	.	.	.	4B\	-ta	.	.	.	.
!	!	!	!	!	!	!	!	!	!LO:TX:t=P:problem=kreska pseudotaktowa	!	!
2F\	-di	.	.	.	.	4c\	mun-	.	2A/	-ta	.
.	.	.	.	.	.	4d\	-di	.	.	.	.
*	*ij	*	*	*	*	*	*	*	*	*	*
!	!	!	!LO:TX:t=P:problem=kreska pseudotaktowa	!	!	!	!	!	!	!	!
1E	pec-	.	1G	-di	.	2e\	pec-	.	1B	mun-	.
.	.	.	.	.	.	1e	-ca-	.	.	.	.
=17	=17	=17	=17	=17	=17	=17	=17	=17	=17	=17	=17
!LO:TX:t=P:problem=kreska pseudotaktowa	!	!	!	!	!	!	!	!	!	!	!
*	*	*	*lig	*	*	*	*	*	*	*	*
!	!	!	!LO:N:vis=0	!	!	!	!	!	!	!	!
1C	-ca-	.	1E	mi-	Do-	.	.	.	2c\	.	.
!	!	!	!	!	!	!LO:TX:t=P:problem=kreska pseudotaktowa	!	!	!	!	!
.	.	.	.	.	.	2.c\	-ta	.	2e\	.	.
!	!	!	!LO:N:vis=0	!	!	!	!	!	!	!	!
1D	-ta	.	1F	.	.	.	.	.	2d\	-di	.
.	.	.	.	.	.	4c\	.	.	.	.	.
.	.	.	.	.	.	2B\	mun-	.	2r	.	.
!	!	!	!	!	!	!	!	!	!LO:TX:t=P:problem=kreska pseudotaktowa	!	!
*	*	*	*Xlig	*	*	*	*	*	*	*	*
=18	=18	=18	=18	=18	=18	=18	=18	=18	=18	=18	=18
*	*	*	*lig	*	*	*	*	*	*lig	*	*
!	!	!	!LO:N:vis=0	!	!	!	!	!	!LO:N:vis=0	!	!
1.C	mun-	.	1E	.	.	1c	-di	.	1e	mi-	Do-
!	!	!	!LO:N:vis=0	!	!	!	!	!	!LO:N:vis=0	!	!
.	.	.	1D	.	.	1r	.	.	1f	.	.
2BB/	.	.	.	.	.	.	.	.	.	.	.
*	*	*	*Xlig	*	*	*	*	*	*Xlig	*	*
=19	=19	=19	=19	=19	=19	=19	=19	=19	=19	=19	=19
1C	.	.	1E	.	.	1r	.	.	1e	-ſe-	-na
!LO:TX:t=P:problem=kreska pseudotaktowa	!	!	!	!	!	!	!	!	!	!	!
1GG	-di	.	1B	.	.	2r	.	.	2d\	-re-	no-
.	.	.	.	.	.	1E	mi-	Do-	1B	-re	.
*	*Xij	*	*	*	*	*	*	*	*	*	*
=20	=20	=20	=20	=20	=20	=20	=20	=20	=20	=20	=20
1r	.	.	1c	.	.	.	.	.	.	.	.
!	!	!	!	!	!	!LO:TX:t=P:problem=kreska pseudotaktowa	!	!	!LO:TX:t=P:problem=kreska pseudotaktowa	!	!
.	.	.	.	.	.	2F/	-ſe-	-na	2A/	no-	.
*lig	*	*	*	*	*	*	*	*	*	*	*
!LO:N:vis=0	!	!	!	!	!	!	!	!	!	!	!
1E	mi-	Do-	1B	.	.	1G	-re-	no-	2B/	.	.
.	.	.	.	.	.	.	.	.	1e	.	.
=21	=21	=21	=21	=21	=21	=21	=21	=21	=21	=21	=21
!LO:N:vis=0	!	!	!	!	!	!LO:TX:t=P:problem=kreska pseudotaktowa	!	!	!	!	!
1F	.	.	1A	.	.	1A	-re	-bis	.	.	.
.	.	.	.	.	.	.	.	.	2d\	.	.
*Xlig	*	*	*	*	*	*lig	*	*	*	*	*
!	!	!	!	!	!	!LO:N:vis=0	!	!	!LO:TX:t=P:problem=kreska pseudotaktowa	!	!
1E	ſe-	na	1G	ſe-	na	1B	no-	pa-	1e	.	.
=22	=22	=22	=22	=22	=22	=22	=22	=22	=22	=22	=22
!	!	!	!	!	!	!LO:N:vis=0	!	!	!	!	!
2.C/	-re-	no-	1E	-re-	no-	1c	.	.	1.e	-bis	-bis
4BB/	.	.	.	.	.	.	.	.	.	.	.
*	*	*	*	*	*	*Xlig	*	*	*	*ij	*ij
!	!	!	!LO:TX:t=P:problem=kreska pseudotaktowa	!	!	!	!	!	!	!	!
1AA	-re	.	1C	-re	-bis	1c	-bis	.	.	.	.
!	!	!	!	!	!	!	!	!	!LO:TX:t=P:problem=kreska pseudotaktowa	!	!
.	.	.	.	.	.	.	.	.	2f#X\	mi-	Do-
=23	=23	=23	=23	=23	=23	=23	=23	=23	=23	=23	=23
*	*	*	*lig	*	*	*	*ij	*	*	*	*
!	!	!	!LO:N:vis=0	!	!	!LO:TX:t=P:problem=kreska pseudotaktowa	!	!	!	!	!
1GG	no-	-bis	1D	no-	pa-	1B	mi-	-cem	1g	-ſe-	-na
!	!	!	!LO:N:vis=0	!	!	!	!	!	!	!	!
2C/	-bis	pa-	1E	.	.	2G/	-ſe-	do-	2e\	-re-	no-
*	*ij	*	*	*	*	*	*	*	*	*	*
1AA	mi-	.	.	.	.	1c	-re-	-na	1e	-re	.
*	*	*	*Xlig	*	*	*	*	*	*	*	*
=24	=24	=24	=24	=24	=24	=24	=24	=24	=24	=24	=24
.	.	.	1F	.	.	.	.	.	.	.	.
2BB/	ſe-	.	.	.	.	2.B\	-re	no-	2d\	no-	.
2C/	-re-	.	1E	.	.	.	.	.	2e\	.	.
.	.	.	.	.	.	4A/	no-	.	.	.	.
2AA/	-re	.	.	.	.	1A	.	-bis	2c/	.	-bis
*	*	*	*	*	*	*	*	*	*	*	*Xij
=25	=25	=25	=25	=25	=25	=25	=25	=25	=25	=25	=25
1BB	no-	.	1D	.	.	.	.	pa-	1d	.	pa-
.	.	.	.	.	.	2G#X/	.	.	.	.	.
!LO:TX:t=P:problem=kreska pseudotaktowa	!	!	!LO:TX:t=P:problem=kreska pseudotaktowa	!	!	!LO:TX:t=P:problem=kreska pseudotaktowa	!	!	!LO:TX:t=P:problem=kreska pseudotaktowa	!	!
!LO:N:vis=0	!	!	!LO:N:vis=0	!	!	!LO:N:vis=0	!	!	!LO:N:vis=0	!	!
1AA;	-bis	-cem	1E;	-bis	-cem	1A;	-bis	-cem	1c#X;	-bis	-cem.
*	*Xij	*	*	*	*	*	*Xij	*Xij	*	*Xij	*
!LO:LB:g=original	!	!	!LO:LB:g=original	!	!	!LO:LB:g=original	!	!	!LO:LB:g=original	!	!
=26||	=26||	=26||	=26||	=26||	=26||	=26||	=26||	=26||	=26||	=26||	=26||
*M2/1	*	*	*M2/1	*	*	*M2/1	*	*	*M2/1	*	*
*met(c|)	*	*	*met(c|)	*	*	*met(c|)	*	*	*met(c|)	*	*
!LO:TX:t=P:problem=kreska pseudotaktowa	!	!	!	!	!	!	!	!	!	!	!
0r	.	.	1e	A-	.	0r	.	.	0r	.	.
.	.	.	1B	-gnus	.	.	.	.	.	.	.
=27	=27	=27	=27	=27	=27	=27	=27	=27	=27	=27	=27
*	*	*	*lig	*	*	*	*	*	*	*	*
!	!	!	!LO:N:vis=0	!	!	!	!	!	!	!	!
1A	A-	.	1c	De-	.	0r	.	.	0r	.	.
!LO:TX:t=P:problem=kreska pseudotaktowa	!	!	!	!	!	!	!	!	!	!	!
!	!	!	!LO:N:vis=0	!	!	!	!	!	!	!	!
1E	-gnus	.	1B	.	.	.	.	.	.	.	.
*	*	*	*Xlig	*	*	*	*	*	*	*	*
=28	=28	=28	=28	=28	=28	=28	=28	=28	=28	=28	=28
1F	De-	.	1A	.	.	0r	.	.	0r	.	.
2E\	-i	.	1B	-i	.	.	.	.	.	.	.
!LO:TX:t=P:problem=kreska pseudotaktowa	!	!	!	!	!	!	!	!	!	!	!
2E\	qui	.	.	.	.	.	.	.	.	.	.
=29	=29	=29	=29	=29	=29	=29	=29	=29	=29	=29	=29
*	*	*	*lig	*	*	*	*	*	*	*	*
!	!	!	!LO:N:vis=0	!	!	!LO:TX:t=P:problem=kreska pseudotaktowa	!	!	!	!	!
2G\	tol-	.	1B	qui	.	1r	.	.	0r	.	.
4G\	.	.	.	.	.	.	.	.	.	.	.
!LO:TX:t=P:problem=kreska pseudotaktowa	!	!	!	!	!	!	!	!	!	!	!
4G\	-lis	.	.	.	.	.	.	.	.	.	.
!	!	!	!LO:N:vis=0	!	!	!	!	!	!	!	!
1A	pec-	.	1c	.	.	1e	A-	.	.	.	.
*	*	*	*Xlig	*	*	*	*	*	*	*	*
=30	=30	=30	=30	=30	=30	=30	=30	=30	=30	=30	=30
!	!	!	!	!	!	!LO:TX:t=P:problem=kreska pseudotaktowa	!	!	!	!	!
2.G\	-ca-	.	1d	tol-	.	1B	-gnus	.	0r	.	.
4F\	.	.	.	.	.	.	.	.	.	.	.
*	*	*	*lig	*	*	*	*	*	*	*	*
!	!	!	!LO:N:vis=0	!	!	!	!	!	!	!	!
4E\	.	.	1e	.	.	1c	De-	.	.	.	.
4D\	.	.	.	.	.	.	.	.	.	.	.
!LO:TX:t=P:problem=kreska pseudotaktowa	!	!	!	!	!	!	!	!	!	!	!
2C/	-ta	.	.	.	.	.	.	.	.	.	.
=31	=31	=31	=31	=31	=31	=31	=31	=31	=31	=31	=31
!	!	!	!LO:N:vis=0	!	!	!	!	!	!	!	!
2.D\	mun-	.	1d	.	.	2B\	i	.	2r	.	.
.	.	.	.	.	.	2A/	qui	.	1a	A-	.
4E\	.	.	.	.	.	.	.	.	.	.	.
!	!	!	!	!	!	!LO:TX:t=P:problem=kreska pseudotaktowa	!	!	!	!	!
*	*	*	*Xlig	*	*	*	*	*	*	*	*
*	*	*	*lig	*	*	*	*	*	*	*	*
!	!	!	!LO:N:vis=0	!	!	!	!	!	!	!	!
4F\	.	.	1c	.	.	2A/	tol-	.	.	.	.
4G\	.	.	.	.	.	.	.	.	.	.	.
!	!	!	!	!	!	!	!	!	!LO:TX:t=P:problem=kreska pseudotaktowa	!	!
2A\	.	.	.	.	.	4A/	-lis	.	2e\	-gnus	.
!	!	!	!	!	!	!LO:TX:t=P:problem=kreska pseudotaktowa	!	!	!	!	!
.	.	.	.	.	.	4G/	pec-	.	.	.	.
=32	=32	=32	=32	=32	=32	=32	=32	=32	=32	=32	=32
!LO:TX:t=P:problem=kreska pseudotaktowa	!	!	!	!	!	!	!	!	!	!	!
!	!	!	!LO:N:vis=0	!	!	!	!	!	!	!	!
1D	-di	.	1d	.	.	2.F/	-ca-	.	1f	De-	.
.	.	.	.	.	.	4G/	-ta	.	.	.	.
!	!	!	!	!	!	!LO:TX:t=P:problem=kreska pseudotaktowa	!	!	!	!	!
*	*	*	*Xlig	*	*	*	*	*	*	*	*
2r	.	.	1c	lis	.	2A/	mu(n)-	.	2e\	-i	.
!LO:TX:t=P:problem=kreska pseudotaktowa	!	!	!	!	!	!LO:TX:t=P:problem=kreska pseudotaktowa	!	!	!LO:TX:t=P:problem=kreska pseudotaktowa	!	!
2A\	pec-	.	.	.	.	2A/	-di	.	2e\	qui	.
=33	=33	=33	=33	=33	=33	=33	=33	=33	=33	=33	=33
2G\	-ca-	.	1B	pec-	.	2r	.	.	1g	tol-	.
2.E\	-ta	.	.	.	.	2e\	pec-	.	.	.	.
.	.	.	1e	.	.	2c\	-ca-	.	2g\	.	.
4D\	.	.	.	.	.	.	.	.	.	.	.
!	!	!	!	!	!	!LO:TX:t=P:problem=kreska pseudotaktowa	!	!	!LO:TX:t=P:problem=kreska pseudotaktowa	!	!
4E\	.	.	.	.	.	2c\	-ta	.	2g\	-lis	.
4F\	.	.	.	.	.	.	.	.	.	.	.
=34	=34	=34	=34	=34	=34	=34	=34	=34	=34	=34	=34
!LO:TX:t=P:problem=kreska pseudotaktowa	!	!	!	!	!	!	!	!	!	!	!
0G	.	.	1d	-ca-	.	4B\	mun-	.	2g\	pe-	.
.	.	.	.	.	.	4A\	.	.	.	.	.
.	.	.	.	.	.	4B\	.	.	2d\	-cca-	.
.	.	.	.	.	.	4c\	.	.	.	.	.
.	.	.	1B	-ta	.	2d\	.	.	2.g\	-ta	.
!	!	!	!	!	!	!LO:TX:t=P:problem=kreska pseudotaktowa	!	!	!	!	!
.	.	.	.	.	.	2d\	-di	.	.	.	.
!	!	!	!	!	!	!	!	!	!LO:TX:t=P:problem=kreska pseudotaktowa	!	!
.	.	.	.	.	.	.	.	.	4f\	.	.
=35	=35	=35	=35	=35	=35	=35	=35	=35	=35	=35	=35
*	*	*	*lig	*	*	*	*	*	*	*	*
!	!	!	!LO:N:vis=0	!	!	!	!	!	!	!	!
1.A	mun-	.	1c	mun-	.	2r	.	.	2e\	mun-	.
!	!	!	!	!	!	!	!	!	!LO:TX:t=P:problem=kreska pseudotaktowa	!	!
.	.	.	.	.	.	2e\	pec-	.	2c/	-di	.
!	!	!	!LO:N:vis=0	!	!	!	!	!	!	!	!
.	.	.	1B	.	.	2d\	-ca-	.	1r	.	.
1G	.	.	.	.	.	2B\	-ta	.	.	.	.
!	!	!	!	!	!	!LO:TX:t=P:problem=kreska pseudotaktowa	!	!	!	!	!
*	*	*	*Xlig	*	*	*	*	*	*	*	*
=36	=36	=36	=36	=36	=36	=36	=36	=36	=36	=36	=36
*	*	*	*lig	*	*	*	*	*	*	*	*
!	!	!	!LO:N:vis=0	!	!	!	!	!	!	!	!
.	.	.	1A	.	.	1c	mun-	.	2r	.	.
!LO:TX:t=P:problem=kreska pseudotaktowa	!	!	!	!	!	!	!	!	!LO:TX:t=P:problem=kreska pseudotaktowa	!	!
2F#X\	.	.	.	.	.	.	.	.	2a\	pec-	.
*custos:G	*	*	*	*	*	*	*	*	*	*	*
!	!	!	!	!	!	!LO:TX:t=P:problem=kreska pseudotaktowa	!	!	!	!	!
!	!	!	!LO:N:vis=0	!	!	!	!	!	!	!	!
2G\	-di	.	1B	.	.	1B	-di	.	2g\	-ca-	.
2G\	pec-	.	.	.	.	.	.	.	2e\	-ta	.
!LO:TX:t=P:problem=kreska pseudotaktowa	!	!	!	!	!	!	!	!	!LO:TX:t=P:problem=kreska pseudotaktowa	!	!
*	*	*	*Xlig	*	*	*	*ij	*	*	*	*
!LO:LB:g=original	!	!	!	!	!	!	!	!	!	!	!
=37	=37	=37	=37	=37	=37	=37	=37	=37	=37	=37	=37
2F\	-ca-	.	1A	-di	.	2r	.	.	1f	mun-	.
2D\	-ta	.	.	.	.	2d\	pec-	.	.	.	.
!	!	!	!	!	!	!	!	!	!LO:TX:t=P:problem=kreska pseudotaktowa	!	!
2E\	mun-	.	1G	.	.	2B\	-ca-	.	1e	-di	.
!	!	!	!	!	!	!LO:TX:t=P:problem=kreska pseudotaktowa	!	!	!	!	!
4E\	.	.	.	.	.	2G/	-ta	.	.	.	.
!LO:TX:t=P:problem=kreska pseudotaktowa	!	!	!	!	!	!	!	!	!	!	!
4E\	-di	.	.	.	.	.	.	.	.	.	.
=38	=38	=38	=38	=38	=38	=38	=38	=38	=38	=38	=38
*	*ij	*	*	*	*	*	*	*	*	*	*
2C/	pec-	.	1E	Mi-	.	4A/	mun-	.	0r	.	.
.	.	.	.	.	.	4B\	.	.	.	.	.
2AA/	-ca-	.	.	.	.	1c	di	.	.	.	.
!LO:TX:t=P:problem=kreska pseudotaktowa	!	!	!	!	!	!	!	!	!	!	!
*	*	*	*lig	*	*	*	*	*	*	*	*
!	!	!	!LO:N:vis=0	!	!	!	!	!	!	!	!
1D	-ta	.	1F	.	.	.	.	.	.	.	.
*	*	*	*	*	*	*custos:c	*	*	*	*	*
!	!	!	!	!	!	!LO:TX:t=P:problem=kreska pseudotaktowa	!	!	!	!	!
.	.	.	.	.	.	2B\	pec-	.	.	.	.
!	!	!	!	!	!	!LO:LB:g=original	!	!	!	!	!
=39	=39	=39	=39	=39	=39	=39	=39	=39	=39	=39	=39
*	*	*	*	*	*	*	*	*	*lig	*	*
!	!	!	!LO:N:vis=0	!	!	!	!	!	!LO:N:vis=0	!	!
1.C	mun-	.	1E	.	.	4c\	-ca-	.	1e	mi-	[[do-
.	.	.	.	.	.	4d\	.	.	.	.	.
.	.	.	.	.	.	4e\	-ta	.	.	.	.
.	.	.	.	.	.	4c\	.	.	.	.	.
!	!	!	!	!	!	!LO:TX:t=P:problem=kreska pseudotaktowa	!	!	!	!	!
*	*	*	*Xlig	*	*	*	*	*	*	*	*
!	!	!	!	!	!	!	!	!	!LO:N:vis=0	!	!
.	.	.	1D	.	.	1d	mun-	.	1f	.	.
2BB/	.	.	.	.	.	.	.	.	.	.	.
*	*	*	*	*	*	*	*	*	*Xlig	*	*
=40	=40	=40	=40	=40	=40	=40	=40	=40	=40	=40	=40
*	*	*	*custos:B	*	*	*	*	*	*	*	*
!LO:TX:t=P:problem=kreska pseudotaktowa	!	!	!	!	!	!LO:TX:t=P:problem=kreska pseudotaktowa	!	!	!	!	!
1C	-di	.	1E	.	.	1c	-di	.	1e	-se-	-na
!	!	!	!LO:LB:g=original	!	!	!	!	!	!	!	!
*	*Xij	*	*lig	*	*	*	*Xij	*	*	*	*
!	!	!	!LO:N:vis=0	!	!	!	!	!	!	!	!
1r	.	.	1B	.	.	2r	.	.	2d\	-re-	no-
.	.	.	.	.	.	1E	mi-	[[do-	1B	.	.
=41	=41	=41	=41	=41	=41	=41	=41	=41	=41	=41	=41
!	!	!	!LO:N:vis=0	!	!	!	!	!	!	!	!
1r	.	.	1c	.	.	.	.	.	.	.	.
.	.	.	.	.	.	2F#X/	-se-	-na	2A/	.	.
!	!	!	!	!	!	!LO:TX:t=P:problem=kreska pseudotaktowa	!	!	!	!	!
*lig	*	*	*Xlig	*	*	*	*	*	*	*	*
!LO:N:vis=0	!	!	!	!	!	!	!	!	!	!	!
1E	Mi-	.	1B	.	.	1G	-re-	no-	2B/	-re	bis
.	.	.	.	.	.	.	.	.	1e	no-	pa-
=42	=42	=42	=42	=42	=42	=42	=42	=42	=42	=42	=42
!LO:N:vis=0	!	!	!	!	!	!LO:TX:t=P:problem=kreska pseudotaktowa	!	!	!	!	!
1F	.	.	1A	.	.	1A	-re	-bis	.	.	.
.	.	.	.	.	.	.	.	.	2d\	.	.
*Xlig	*	*	*	*	*	*lig	*ij	*	*	*	*
*	*	*	*	*	*	*	*	*	*custos:e	*	*
!	!	!	!	!	!	!LO:N:vis=0	!	!	!	!	!
1E	-ſe-	.	1G	se-	.	1B	mi-	pa-	1e	-bis	-cem]]
!	!	!	!	!	!	!	!	!	!LO:LB:g=original	!	!
=43	=43	=43	=43	=43	=43	=43	=43	=43	=43	=43	=43
!	!	!	!	!	!	!LO:N:vis=0	!	!	!	!	!
2.C/	-re-	.	1E	-re-	.	1c	.	.	1r	.	.
4BB/	.	.	.	.	.	.	.	.	.	.	.
*	*	*	*	*	*	*Xlig	*	*	*	*	*
!	!	!	!LO:TX:t=P:problem=kreska pseudotaktowa	!	!	!	!	!	!	!	!
*	*	*	*	*	*	*	*	*	*lig	*	*
!	!	!	!	!	!	!	!	!	!LO:N:vis=0	!	!
1AA	.	.	1C	-re	.	2c\	-se-	.	1e	mi-	[[do-
.	.	.	.	.	.	1c	-re-	.	.	.	.
=44	=44	=44	=44	=44	=44	=44	=44	=44	=44	=44	=44
!LO:TX:t=P:problem=kreska pseudotaktowa	!	!	!	!	!	!	!	!	!	!	!
*	*	*	*lig	*	*	*	*	*	*	*	*
!	!	!	!LO:N:vis=0	!	!	!	!	!	!LO:N:vis=0	!	!
1D	.	.	1D	No-	.	.	.	.	1f	.	.
.	.	.	.	.	.	2B\	-re	-cem	.	.	.
!	!	!	!	!	!	!LO:TX:t=P:problem=kreska pseudotaktowa	!	!	!	!	!
*	*	*	*	*	*	*	*Xij	*	*Xlig	*	*
!	!	!	!LO:N:vis=0	!	!	!	!	!	!	!	!
1C	-re	.	1E	.	.	2.c\	mi-	do-	1e	-se-	-na
.	.	.	.	.	.	4B\	-se-	na	.	.	.
*	*	*	*Xlig	*	*	*	*	*	*	*	*
=45	=45	=45	=45	=45	=45	=45	=45	=45	=45	=45	=45
*	*	*	*lig	*	*	*	*	*	*	*	*
!	!	!	!LO:N:vis=0	!	!	!	!	!	!	!	!
4FF/	no-	.	1F	.	.	2A/	-re-	no-	2.c/	-re-	no-
4GG/	.	.	.	.	.	.	.	.	.	.	.
!	!	!	!	!	!	!LO:TX:t=P:problem=kreska pseudotaktowa	!	!	!	!	!
4AA/	.	.	.	.	.	2A/	-re	-bis	.	.	.
4BB/	.	.	.	.	.	.	.	.	4d/	.	.
!	!	!	!LO:N:vis=0	!	!	!	!	!	!	!	!
1C	.	.	1E	.	.	0G	no-	pa-	2e\	-re	-bis
.	.	.	.	.	.	.	.	.	1c	no-	pa-
*	*	*	*Xlig	*	*	*	*	*	*	*	*
=46	=46	=46	=46	=46	=46	=46	=46	=46	=46	=46	=46
1GG	.	.	1D	.	.	.	.	.	.	.	.
.	.	.	.	.	.	.	.	.	2B/	.	.
!LO:TX:t=P:problem=kreska pseudotaktowa	!	!	!	!	!	!LO:TX:t=P:problem=kreska pseudotaktowa	!	!	!	!	!
!	!	!	!LO:TX:t=P:problem= w źródle brevis bez kropki	!	!	!	!	!	!	!	!
!	!	!	!LO:N:vis=0	!	!	!	!	!	!	!	!
1C	-bis	.	00..E;	-bis	.	1G	-bis.	-ce(m)]]	1c	-bis	-cem]]
=47	=47	=47	=47	=47	=47	=47	=47	=47	=47	=47	=47
2r	.	.	.	.	.	2r	.	.	2r	.	.
*	*ij	*	*	*	*	*	*ij	*	*	*ij	*
1AA	mi-	.	.	.	.	1c	mi-	.	1A	mi-	[[do-
!	!	!	!	!	!	!LO:TX:t=P:problem=kreska pseudotaktowa	!	!	!	!	!
2E\	-se-	.	.	.	.	2B\	-se-	.	2G#X/	-se-	-na
=48	=48	=48	=48	=48	=48	=48	=48	=48	=48	=48	=48
2AA/	-re-	.	.	.	.	2c\	-re-	.	2A/	-re-	no-
2GG#X/	-re	.	.	.	.	1B	-re	.	2B/	-re	-bis
1AA	no-	.	.	.	.	.	.	.	1c	no-	pa-
.	.	.	.	.	.	1A	no-	.	.	.	.
=49	=49	=49	=49	=49	=49	=49	=49	=49	=49	=49	=49
!LO:TX:t=P:problem=kreska pseudotaktowa	!	!	!LO:TX:t=P:problem=kreska pseudotaktowa	!	!	!	!	!	!LO:TX:t=P:problem=kreska pseudotaktowa	!	!
0EE;	-bis	.	.	.	.	.	.	.	0B;	-bis	-cem]]
.	.	.	.	.	.	4G/	.	.	.	.	.
.	.	.	.	.	.	4F#X/	.	.	.	.	.
!	!	!	!	!	!	!LO:TX:t=P:problem=kreska pseudotaktowa	!	!	!	!	!
!	!	!	!	!	!	!LO:N:vis=0	!	!	!	!	!
.	.	.	.	.	.	1G;	-bis	.	.	.	.
*	*Xij	*	*	*	*	*	*Xij	*	*	*Xij	*
==	==	==	==	==	==	==	==	==	==	==	==
*-	*-	*-	*-	*-	*-	*-	*-	*-	*-	*-	*-
!!!system-decoration: [(s1,s2,s3,s4)]
!!!ENC: Marta Opryszak
!!!END: 2022-01-17
!!!ENC: Jan Barakat
!!!END: 2022-01-23
